groups/aromatics/tetracene.svg

<?xml version='1.0' encoding='iso-8859-1'?>
<svg version='1.1' baseProfile='full'
              xmlns='http://www.w3.org/2000/svg'
                      xmlns:rdkit='http://www.rdkit.org/xml'
                      xmlns:xlink='http://www.w3.org/1999/xlink'
                  xml:space='preserve'
width='256px' height='256px' viewBox='0 0 256 256'>
<!-- END OF HEADER -->
<rect style='opacity:1.0;fill:#FFFFFF;stroke:none' width='256.0' height='256.0' x='0.0' y='0.0'> </rect>
<path class='bond-0 atom-0 atom-1' d='M 213.9,77.8 L 213.9,111.0' style='fill:none;fill-rule:evenodd;stroke:#000000;stroke-width:2.0px;stroke-linecap:butt;stroke-linejoin:miter;stroke-opacity:1' />
<path class='bond-1 atom-1 atom-2' d='M 213.9,111.0 L 185.2,127.7' style='fill:none;fill-rule:evenodd;stroke:#000000;stroke-width:2.0px;stroke-linecap:butt;stroke-linejoin:miter;stroke-opacity:1' />
<path class='bond-1 atom-1 atom-2' d='M 214.0,116.8 L 190.2,130.5' style='fill:none;fill-rule:evenodd;stroke:#000000;stroke-width:2.0px;stroke-linecap:butt;stroke-linejoin:miter;stroke-opacity:1' />
<path class='bond-2 atom-2 atom-3' d='M 185.2,127.7 L 156.5,111.2' style='fill:none;fill-rule:evenodd;stroke:#000000;stroke-width:2.0px;stroke-linecap:butt;stroke-linejoin:miter;stroke-opacity:1' />
<path class='bond-3 atom-3 atom-4' d='M 156.5,111.2 L 127.8,127.8' style='fill:none;fill-rule:evenodd;stroke:#000000;stroke-width:2.0px;stroke-linecap:butt;stroke-linejoin:miter;stroke-opacity:1' />
<path class='bond-3 atom-3 atom-4' d='M 156.5,116.9 L 132.7,130.7' style='fill:none;fill-rule:evenodd;stroke:#000000;stroke-width:2.0px;stroke-linecap:butt;stroke-linejoin:miter;stroke-opacity:1' />
<path class='bond-4 atom-4 atom-5' d='M 127.8,127.8 L 99.0,111.3' style='fill:none;fill-rule:evenodd;stroke:#000000;stroke-width:2.0px;stroke-linecap:butt;stroke-linejoin:miter;stroke-opacity:1' />
<path class='bond-5 atom-5 atom-6' d='M 99.0,111.3 L 70.3,128.0' style='fill:none;fill-rule:evenodd;stroke:#000000;stroke-width:2.0px;stroke-linecap:butt;stroke-linejoin:miter;stroke-opacity:1' />
<path class='bond-5 atom-5 atom-6' d='M 99.0,117.0 L 75.3,130.8' style='fill:none;fill-rule:evenodd;stroke:#000000;stroke-width:2.0px;stroke-linecap:butt;stroke-linejoin:miter;stroke-opacity:1' />
<path class='bond-6 atom-6 atom-7' d='M 70.3,128.0 L 41.5,111.4' style='fill:none;fill-rule:evenodd;stroke:#000000;stroke-width:2.0px;stroke-linecap:butt;stroke-linejoin:miter;stroke-opacity:1' />
<path class='bond-7 atom-7 atom-8' d='M 41.5,111.4 L 12.8,128.1' style='fill:none;fill-rule:evenodd;stroke:#000000;stroke-width:2.0px;stroke-linecap:butt;stroke-linejoin:miter;stroke-opacity:1' />
<path class='bond-7 atom-7 atom-8' d='M 41.5,117.2 L 17.8,131.0' style='fill:none;fill-rule:evenodd;stroke:#000000;stroke-width:2.0px;stroke-linecap:butt;stroke-linejoin:miter;stroke-opacity:1' />
<path class='bond-8 atom-8 atom-9' d='M 12.8,128.1 L 12.9,161.3' style='fill:none;fill-rule:evenodd;stroke:#000000;stroke-width:2.0px;stroke-linecap:butt;stroke-linejoin:miter;stroke-opacity:1' />
<path class='bond-9 atom-9 atom-10' d='M 12.9,161.3 L 41.7,177.8' style='fill:none;fill-rule:evenodd;stroke:#000000;stroke-width:2.0px;stroke-linecap:butt;stroke-linejoin:miter;stroke-opacity:1' />
<path class='bond-9 atom-9 atom-10' d='M 17.9,158.4 L 41.6,172.1' style='fill:none;fill-rule:evenodd;stroke:#000000;stroke-width:2.0px;stroke-linecap:butt;stroke-linejoin:miter;stroke-opacity:1' />
<path class='bond-10 atom-10 atom-11' d='M 41.7,177.8 L 70.4,161.1' style='fill:none;fill-rule:evenodd;stroke:#000000;stroke-width:2.0px;stroke-linecap:butt;stroke-linejoin:miter;stroke-opacity:1' />
<path class='bond-11 atom-11 atom-12' d='M 70.4,161.1 L 99.1,177.7' style='fill:none;fill-rule:evenodd;stroke:#000000;stroke-width:2.0px;stroke-linecap:butt;stroke-linejoin:miter;stroke-opacity:1' />
<path class='bond-11 atom-11 atom-12' d='M 75.3,158.3 L 99.1,171.9' style='fill:none;fill-rule:evenodd;stroke:#000000;stroke-width:2.0px;stroke-linecap:butt;stroke-linejoin:miter;stroke-opacity:1' />
<path class='bond-12 atom-12 atom-13' d='M 99.1,177.7 L 127.8,161.0' style='fill:none;fill-rule:evenodd;stroke:#000000;stroke-width:2.0px;stroke-linecap:butt;stroke-linejoin:miter;stroke-opacity:1' />
<path class='bond-13 atom-13 atom-14' d='M 127.8,161.0 L 156.6,177.5' style='fill:none;fill-rule:evenodd;stroke:#000000;stroke-width:2.0px;stroke-linecap:butt;stroke-linejoin:miter;stroke-opacity:1' />
<path class='bond-13 atom-13 atom-14' d='M 132.8,158.1 L 156.6,171.8' style='fill:none;fill-rule:evenodd;stroke:#000000;stroke-width:2.0px;stroke-linecap:butt;stroke-linejoin:miter;stroke-opacity:1' />
<path class='bond-14 atom-14 atom-15' d='M 156.6,177.5 L 185.3,160.9' style='fill:none;fill-rule:evenodd;stroke:#000000;stroke-width:2.0px;stroke-linecap:butt;stroke-linejoin:miter;stroke-opacity:1' />
<path class='bond-15 atom-15 atom-16' d='M 185.3,160.9 L 214.1,177.4' style='fill:none;fill-rule:evenodd;stroke:#000000;stroke-width:2.0px;stroke-linecap:butt;stroke-linejoin:miter;stroke-opacity:1' />
<path class='bond-15 atom-15 atom-16' d='M 190.3,158.0 L 214.1,171.6' style='fill:none;fill-rule:evenodd;stroke:#000000;stroke-width:2.0px;stroke-linecap:butt;stroke-linejoin:miter;stroke-opacity:1' />
<path class='bond-16 atom-16 atom-17' d='M 214.1,177.4 L 242.8,160.7' style='fill:none;fill-rule:evenodd;stroke:#000000;stroke-width:2.0px;stroke-linecap:butt;stroke-linejoin:miter;stroke-opacity:1' />
<path class='bond-17 atom-17 atom-18' d='M 242.8,160.7 L 242.7,127.5' style='fill:none;fill-rule:evenodd;stroke:#000000;stroke-width:2.0px;stroke-linecap:butt;stroke-linejoin:miter;stroke-opacity:1' />
<path class='bond-17 atom-17 atom-18' d='M 237.8,157.9 L 237.7,130.4' style='fill:none;fill-rule:evenodd;stroke:#000000;stroke-width:2.0px;stroke-linecap:butt;stroke-linejoin:miter;stroke-opacity:1' />
<path class='bond-18 atom-18 atom-1' d='M 242.7,127.5 L 213.9,111.0' style='fill:none;fill-rule:evenodd;stroke:#000000;stroke-width:2.0px;stroke-linecap:butt;stroke-linejoin:miter;stroke-opacity:1' />
<path class='bond-19 atom-15 atom-2' d='M 185.3,160.9 L 185.2,127.7' style='fill:none;fill-rule:evenodd;stroke:#000000;stroke-width:2.0px;stroke-linecap:butt;stroke-linejoin:miter;stroke-opacity:1' />
<path class='bond-20 atom-13 atom-4' d='M 127.8,161.0 L 127.8,127.8' style='fill:none;fill-rule:evenodd;stroke:#000000;stroke-width:2.0px;stroke-linecap:butt;stroke-linejoin:miter;stroke-opacity:1' />
<path class='bond-21 atom-11 atom-6' d='M 70.4,161.1 L 70.3,128.0' style='fill:none;fill-rule:evenodd;stroke:#000000;stroke-width:2.0px;stroke-linecap:butt;stroke-linejoin:miter;stroke-opacity:1' />
<path d='M 157.9,112.0 L 156.5,111.2 L 155.0,112.0' style='fill:none;stroke:#000000;stroke-width:2.0px;stroke-linecap:butt;stroke-linejoin:miter;stroke-miterlimit:10;stroke-opacity:1;' />
<path d='M 100.4,112.1 L 99.0,111.3 L 97.5,112.1' style='fill:none;stroke:#000000;stroke-width:2.0px;stroke-linecap:butt;stroke-linejoin:miter;stroke-miterlimit:10;stroke-opacity:1;' />
<path d='M 42.9,112.3 L 41.5,111.4 L 40.1,112.3' style='fill:none;stroke:#000000;stroke-width:2.0px;stroke-linecap:butt;stroke-linejoin:miter;stroke-miterlimit:10;stroke-opacity:1;' />
<path d='M 14.2,127.3 L 12.8,128.1 L 12.8,129.8' style='fill:none;stroke:#000000;stroke-width:2.0px;stroke-linecap:butt;stroke-linejoin:miter;stroke-miterlimit:10;stroke-opacity:1;' />
<path d='M 12.9,159.6 L 12.9,161.3 L 14.3,162.1' style='fill:none;stroke:#000000;stroke-width:2.0px;stroke-linecap:butt;stroke-linejoin:miter;stroke-miterlimit:10;stroke-opacity:1;' />
<path d='M 40.2,177.0 L 41.7,177.8 L 43.1,177.0' style='fill:none;stroke:#000000;stroke-width:2.0px;stroke-linecap:butt;stroke-linejoin:miter;stroke-miterlimit:10;stroke-opacity:1;' />
<path d='M 97.7,176.8 L 99.1,177.7 L 100.6,176.8' style='fill:none;stroke:#000000;stroke-width:2.0px;stroke-linecap:butt;stroke-linejoin:miter;stroke-miterlimit:10;stroke-opacity:1;' />
<path d='M 155.2,176.7 L 156.6,177.5 L 158.1,176.7' style='fill:none;stroke:#000000;stroke-width:2.0px;stroke-linecap:butt;stroke-linejoin:miter;stroke-miterlimit:10;stroke-opacity:1;' />
<path d='M 212.7,176.6 L 214.1,177.4 L 215.5,176.6' style='fill:none;stroke:#000000;stroke-width:2.0px;stroke-linecap:butt;stroke-linejoin:miter;stroke-miterlimit:10;stroke-opacity:1;' />
<path d='M 241.4,161.6 L 242.8,160.7 L 242.8,159.1' style='fill:none;stroke:#000000;stroke-width:2.0px;stroke-linecap:butt;stroke-linejoin:miter;stroke-miterlimit:10;stroke-opacity:1;' />
<path d='M 242.7,129.2 L 242.7,127.5 L 241.3,126.7' style='fill:none;stroke:#000000;stroke-width:2.0px;stroke-linecap:butt;stroke-linejoin:miter;stroke-miterlimit:10;stroke-opacity:1;' />
<path class='atom-1' d='M197.267,77.8733 C197.27,79.1178 198.93,79.1138 198.927,77.8693 C198.924,76.6248 200.583,76.6208 200.586,77.8653 C200.589,79.1098 202.248,79.1058 202.245,77.8614 C202.242,76.6169 203.902,76.6129 203.905,77.8574 C203.908,79.1019 205.567,79.0979 205.564,77.8534 C205.561,76.6089 207.22,76.6049 207.223,77.8494 C207.226,79.0939 208.886,79.0899 208.883,77.8454 C208.88,76.6009 210.539,76.5969 210.542,77.8414 C210.545,79.0859 212.204,79.082 212.201,77.8375 C212.199,76.593 213.858,76.589 213.861,77.8335 C213.864,79.078 215.523,79.074 215.52,77.8295 C215.517,76.585 217.177,76.581 217.18,77.8255 C217.183,79.07 218.842,79.066 218.839,77.8215 C218.836,76.577 220.495,76.573 220.498,77.8175 C220.501,79.062 222.161,79.0581 222.158,77.8136 C222.155,76.5691 223.814,76.5651 223.817,77.8096 C223.82,79.0541 225.479,79.0501 225.476,77.8056 C225.473,76.5611 227.133,76.5571 227.136,77.8016 C227.139,79.0461 228.798,79.0421 228.795,77.7976 C228.792,76.5531 230.451,76.5492 230.454,77.7937' style='fill:none;stroke:#7F7F7F;stroke-width:2.0px;stroke-linecap:butt;stroke-linejoin:miter;stroke-opacity:1' />
</svg>

<svg height="256" viewBox="0 0 256 256" width="256" xmlns="http://www.w3.org/2000/svg"><path d="m0 0h256v256h-256z" fill="#fff"/><g fill="none" stroke-width="2"><path d="m213.9 77.8v33.2" stroke="#000"/><path d="m213.9 111-28.7 16.7" stroke="#000"/><path d="m214 116.8-23.8 13.7" stroke="#000"/><path d="m185.2 127.7-28.7-16.5" stroke="#000"/><path d="m156.5 111.2-28.7 16.6" stroke="#000"/><path d="m156.5 116.9-23.8 13.8" stroke="#000"/><path d="m127.8 127.8-28.8-16.5" stroke="#000"/><path d="m99 111.3-28.7 16.7" stroke="#000"/><path d="m99 117-23.7 13.8" stroke="#000"/><path d="m70.3 128-28.8-16.6" stroke="#000"/><path d="m41.5 111.4-28.7 16.7" stroke="#000"/><path d="m41.5 117.2-23.7 13.8" stroke="#000"/><path d="m12.8 128.1.1 33.2" stroke="#000"/><path d="m12.9 161.3 28.8 16.5" stroke="#000"/><path d="m17.9 158.4 23.7 13.7" stroke="#000"/><path d="m41.7 177.8 28.7-16.7" stroke="#000"/><path d="m70.4 161.1 28.7 16.6" stroke="#000"/><path d="m75.3 158.3 23.8 13.6" stroke="#000"/><path d="m99.1 177.7 28.7-16.7" stroke="#000"/><path d="m127.8 161 28.8 16.5" stroke="#000"/><path d="m132.8 158.1 23.8 13.7" stroke="#000"/><path d="m156.6 177.5 28.7-16.6" stroke="#000"/><path d="m185.3 160.9 28.8 16.5" stroke="#000"/><path d="m190.3 158 23.8 13.6" stroke="#000"/><path d="m214.1 177.4 28.7-16.7" stroke="#000"/><path d="m242.8 160.7-.1-33.2" stroke="#000"/><path d="m237.8 157.9-.1-27.5" stroke="#000"/><path d="m242.7 127.5-28.8-16.5" stroke="#000"/><path d="m185.3 160.9-.1-33.2" stroke="#000"/><path d="m127.8 161v-33.2" stroke="#000"/><path d="m70.4 161.1-.1-33.1" stroke="#000"/><path d="m157.9 112-1.4-.8-1.5.8" stroke="#000" stroke-miterlimit="10"/><path d="m100.4 112.1-1.4-.8-1.5.8" stroke="#000" stroke-miterlimit="10"/><path d="m42.9 112.3-1.4-.9-1.4.9" stroke="#000" stroke-miterlimit="10"/><path d="m14.2 127.3-1.4.8v1.7" stroke="#000" stroke-miterlimit="10"/><path d="m12.9 159.6v1.7l1.4.8" stroke="#000" stroke-miterlimit="10"/><path d="m40.2 177 1.5.8 1.4-.8" stroke="#000" stroke-miterlimit="10"/><path d="m97.7 176.8 1.4.9 1.5-.9" stroke="#000" stroke-miterlimit="10"/><path d="m155.2 176.7 1.4.8 1.5-.8" stroke="#000" stroke-miterlimit="10"/><path d="m212.7 176.6 1.4.8 1.4-.8" stroke="#000" stroke-miterlimit="10"/><path d="m241.4 161.6 1.4-.9v-1.6" stroke="#000" stroke-miterlimit="10"/><path d="m242.7 129.2v-1.7l-1.4-.8" stroke="#000" stroke-miterlimit="10"/><path d="m197.267 77.873c.003 1.245 1.663 1.241 1.66-.004-.003-1.244 1.656-1.248 1.659-.004.003 1.245 1.662 1.241 1.659-.004-.003-1.244 1.657-1.248 1.66-.004.003 1.245 1.662 1.241 1.659-.004-.003-1.244 1.656-1.248 1.659-.004.003 1.245 1.663 1.241 1.66-.004-.003-1.244 1.656-1.248 1.659-.004.003 1.245 1.662 1.241 1.659-.003-.002-1.245 1.657-1.249 1.66-.004.003 1.244 1.662 1.24 1.659-.004-.003-1.245 1.657-1.249 1.66-.004.003 1.244 1.662 1.24 1.659-.004-.003-1.245 1.656-1.249 1.659-.004.003 1.244 1.663 1.24 1.66-.004-.003-1.245 1.656-1.249 1.659-.004.003 1.244 1.662 1.24 1.659-.004-.003-1.245 1.657-1.249 1.66-.004.003 1.244 1.662 1.24 1.659-.004-.003-1.245 1.656-1.249 1.659-.004" stroke="#7f7f7f"/></g></svg>
